X:299
T: DIE FASTNACHT BRINGT UNS FREUDEN
N: Z0297
O: Europa, Mitteleuropa, Deutschland
R: Lyrisches Lied, Romanze
M: 3/4
L: 1/8
K: C
G,2 | C4D2 | E4F2 | G3FED | E4
G,2 | C4D2 | E4F2 | G3FED | E4
E2 | D4C2 | D3CB,A, | B,4A,2 | B,4
G2 | F4E2 | F4F2 | E4D2 | E4
E2 | D4C2 | D4B,C | A,4F2 | E4D2 | C4

@@@ Tune index: 10057
